!!!COM:      Bach, Johann Sebastian
!!!CDT:      1685/03/31/-1750/07/28/
!!!OPR@@GER: Das wohltemperirte Clavier
!!!OVM@@GER: Band II
!!!OPR@ENG:  Well-Tempered Clavier
!!!OVM@ENG:  Book II
!!!OTL:      Prelude
!!!OKY:      E major
!!!ONM:      no. 9
!!!SCT:      BWV 878
!!!OMV:      1
**kern	**kern	**kern	**kern	**kern
*>[A,A,B,B]	*>[A,A,B,B]	*>[A,A,B,B]	*>[A,A,B,B]	*>[A,A,B,B]
*>norep[A,B]	*>norep[A,B]	*>norep[A,B]	*>norep[A,B]	*>norep[A,B]
*>A	*>A	*>A	*>A	*>A
*clefF4	*	*clefG2	*	*clefG2
*k[f#c#g#d#]	*	*k[f#c#g#d#]	*	*k[f#c#g#d#]
*E:	*	*E:	*	*E:
*M3/4	*	*M3/4	*	*M3/4
*MM64	*MM64	*MM64	*MM64	*MM64
=1-	=1-	=1-	=1-	=1-
[2.E	2.ryy	4r	2.ryy	8r
.	.	.	.	8b
.	.	8r	.	[4cc#
.	.	8g#	.	.
.	.	[4a	.	16cc#]
.	.	.	.	16cc#
.	.	.	.	16b
.	.	.	.	16a
=2	=2	=2	=2	=2
2.E_	2.ryy	16a]	2.ryy	[4b
.	.	16a	.	.
.	.	16g#	.	.
.	.	16f#	.	.
.	.	8g#	.	16b]
.	.	.	.	16b
.	.	8r	.	16ee
.	.	.	.	16dd#
.	.	4r	.	16cc#
.	.	.	.	16b
.	.	.	.	16a
.	.	.	.	16g#
=3	=3	=3	=3	=3
4E_	2.ryy	16r	2.ryy	[2.a
.	.	16g#	.	.
.	.	16f#	.	.
.	.	16e	.	.
16E]	.	[2f#	.	.
16E	.	.	.	.
16D#	.	.	.	.
16C#	.	.	.	.
16D#	.	.	.	.
16F#	.	.	.	.
16BB	.	.	.	.
16D#	.	.	.	.
=4	=4	=4	=4	=4
8E	2.ryy	4f#_	2.ryy	16a]
.	.	.	.	16a
8EE	.	.	.	16g#
.	.	.	.	16f#
8E	.	16f#]	.	[4g#
.	.	16f#	.	.
8F#	.	16e	.	.
.	.	16d#	.	.
8G#	.	8e	.	16g#]
.	.	.	.	16g#
8A	.	8r	.	16f#
.	.	.	.	16e
=5	=5	=5	=5	=5
[2.B	2.ryy	8r	2.ryy	8d#
.	.	8f#	.	8r
.	.	[4g#	.	8r
.	.	.	.	8dd#
.	.	16g#]	.	[4ee
.	.	16g#	.	.
.	.	16f#	.	.
.	.	16e	.	.
=6	=6	=6	=6	=6
2.B_	2.ryy	[4f#	2.ryy	16ee]
.	.	.	.	16ee
.	.	.	.	16dd#
.	.	.	.	16cc#
.	.	16f#]	.	8dd#
.	.	16f#	.	.
.	.	16b	.	8r
.	.	16a	.	.
.	.	16g#	.	4r
.	.	16f#	.	.
.	.	16e	.	.
.	.	16d#	.	.
=7	=7	=7	=7	=7
4B_	2.ryy	[2.e	2.ryy	16r
.	.	.	.	16dd#
.	.	.	.	16cc#
.	.	.	.	16b
16B]	.	.	.	[2cc#
16B	.	.	.	.
16A#	.	.	.	.
16G#	.	.	.	.
16A#	.	.	.	.
16c#	.	.	.	.
16F#	.	.	.	.
16A#	.	.	.	.
=8	=8	=8	=8	=8
[2B	2.ryy	16e]	2.ryy	4cc#_
.	.	16e	.	.
.	.	16d#	.	.
.	.	16c#	.	.
.	.	2d#	.	16cc#]
.	.	.	.	16cc#
.	.	.	.	16b
.	.	.	.	16a#
16B]	.	.	.	[4b
16c#	.	.	.	.
16B	.	.	.	.
16An	.	.	.	.
=9	=9	=9	=9	=9
2.G#	2.ryy	8r	2.ryy	16b]
.	.	.	.	16an
.	.	8A	.	16g#
.	.	.	.	16f#
.	.	8B	.	16e#
.	.	.	.	16g#
.	.	16dn	.	16b
.	.	16e#X	.	[16ddn
.	.	8f#	.	16dd]
.	.	.	.	16dd
.	.	[8e#X	.	16cc#
.	.	.	.	[16b
=10	=10	=10	=10	=10
[2.F#	2.ryy	8e#]	2.ryy	16b]
.	.	.	.	16a
.	.	8e#X	.	16g#
.	.	.	.	16b
.	.	8f#	.	16a
.	.	.	.	16cc#
.	.	8en	.	16ff#
.	.	.	.	[16aa
.	.	8d#	.	16aa]
.	.	.	.	16ff#
.	.	8c#	.	16gg#
.	.	.	.	16aa
=11	=11	=11	=11	=11
16F#]	2.ryy	8d#	2.ryy	8b#
16E	.	.	.	.
16D#	.	8e	.	8cc#
16C#	.	.	.	.
16BB#	.	8f#	.	2dd#
16D#	.	.	.	.
16F#	.	16a	.	.
[16A	.	16b#X	.	.
16A]	.	8cc#	.	.
16A	.	.	.	.
16G#	.	8b#X	.	.
[16F#	.	.	.	.
=12	=12	=12	=12	=12
16F#]	2.ryy	4cc#	2.ryy	8r
16E	.	.	.	.
16D#	.	.	.	8g#
16F#	.	.	.	.
16E	.	4r	.	8cc#
16G#	.	.	.	.
16c#	.	.	.	8ee
[16e	.	.	.	.
16e]	.	4gn	.	8a#
16c#	.	.	.	.
16d#	.	.	.	16b
16e	.	.	.	[16cc#
=13	=13	=13	=13	=13
8A#	2.ryy	8f#	2.ryy	16cc#]
.	.	.	.	16e#
8c#	.	8r	.	16f#
.	.	.	.	16g#
8f#	.	4r	.	16a#
.	.	.	.	16b
8c#	.	.	.	16cc#
.	.	.	.	16dd#
8A#X	.	4r	.	16een
.	.	.	.	16dd#
8F#	.	.	.	16ee
.	.	.	.	16cc#
=14	=14	=14	=14	=14
8B	2.ryy	16r	2.ryy	[2.dd#
.	.	16A#	.	.
8r	.	16B	.	.
.	.	16c#	.	.
4r	.	16d#	.	.
.	.	16e	.	.
.	.	16f#	.	.
.	.	16g#	.	.
4r	.	16an	.	.
.	.	16g#	.	.
.	.	16a	.	.
.	.	16f#	.	.
=15	=15	=15	=15	=15
16r	2.ryy	16g#	2.ryy	4dd#]
16D#	.	16f#	.	.
16E	.	16g#	.	.
16F#	.	16a#	.	.
16G#	.	8b	.	8ddn
16A#	.	.	.	.
16B	.	8g#	.	8b
16c#	.	.	.	.
16dn	.	4e#	.	8g#
16c#	.	.	.	.
16d	.	.	.	[8b
16B	.	.	.	.
=16	=16	=16	=16	=16
4.c#	2.ryy	[2en	2.ryy	16b]
.	.	.	.	16b
.	.	.	.	16a#
.	.	.	.	16g#
.	.	.	.	16a#
.	.	.	.	16b
8B	.	.	.	16cc#
.	.	.	.	16a#
4A#	.	16e]	.	8f#
.	.	16e	.	.
.	.	16d#	.	[8ff#
.	.	16c#	.	.
=17	=17	=17	=17	=17
8B	2.ryy	8d#	2.ryy	16ff#]
.	.	.	.	16ee
8F#	.	8A#	.	16gg#
.	.	.	.	16ff#
8G#	.	4.B	.	16ee
.	.	.	.	16dd#
8E	.	.	.	16cc#
.	.	.	.	16b
4F#	.	.	.	16dd#
.	.	.	.	16f#
.	.	8A#X	.	16cc#
.	.	.	.	16e
=18	=18	=18	=18	=18
8B	2.ryy	4B	2.ryy	16d#
.	.	.	.	16f#
8BB	.	.	.	16b
.	.	.	.	16a#
8BB	.	16r	.	4b
.	.	16f#	.	.
8B	.	16e	.	.
.	.	[16f#	.	.
8B	.	16f#]	.	4g#
.	.	16e	.	.
8BB	.	16d#	.	.
.	.	[16e	.	.
=19	=19	=19	=19	=19
8B	2.ryy	4e]	2.ryy	16f#
.	.	.	.	16g#
8BB	.	.	.	16an
.	.	.	.	16g#
8BB	.	16r	.	4a
.	.	16e	.	.
8B	.	16d#	.	.
.	.	[16e	.	.
8B	.	16e]	.	4f#
.	.	16d#	.	.
8BB	.	16c#	.	.
.	.	[16d#	.	.
=20	=20	=20	=20	=20
8B	2.ryy	4d#]	2.ryy	16e
.	.	.	.	16f#
8BB	.	.	.	16gn
.	.	.	.	16f#
8BB	.	16r	.	4g
.	.	16d#	.	.
8B	.	16c#	.	.
.	.	[16d#	.	.
8B	.	16d#]	.	[4e
.	.	16c#	.	.
8BB	.	16B	.	.
.	.	[16c#	.	.
=21	=21	=21	=21	=21
8B	2.ryy	4c#]	2.ryy	8e]
[8A#w	.	.	.	8cc#
16A#]	.	8r	.	8cc#
16F#	.	.	.	.
16G#	.	8c#	.	8e
16A#	.	.	.	.
16B	.	8B	.	8d#
16G#	.	.	.	.
16F#	.	8r	.	8ff#
16E	.	.	.	.
=22	=22	=22	=22	=22
*	*	*	*staff:6	*
*	*	*	*clefG2	*
*	*	*	*k[f#c#g#d#]	*
16D#	2.ryy	8r	4ryy	8ff#
16C#	.	.	.	.
16D#	.	8d#	.	8b
16E	.	.	.	.
16F#	.	8c#	4ryy	8a#
16D#	.	.	.	.
16C#	.	8r	.	8ee
16BB	.	.	.	.
16AA#	.	8r	8ryy	8ee
16GG#	.	.	.	.
16AA#	.	8c#	8e	8f#
16BB	.	.	.	.
=23	=23	=23	=23	=23
16C#	2.ryy	4A#	[4e	[4f#
16AA#	.	.	.	.
16GG#	.	.	.	.
16FF#	.	.	.	.
8BB	.	4B	16e]	8f#]
.	.	.	8.d#	.
8GG#	.	.	.	16g#
.	.	.	.	[16b
8EE	.	8r	8c#	16b]
.	.	.	.	8b
8FF#	.	[8F#	[8e	.
.	.	.	.	16a#X
=24	=24	=24	=24	=24
2.BB	2.ryy	8F#]	16e]	8b
.	.	.	8d#	.
.	.	8Gn	.	8e
.	.	.	[16c#	.
.	.	8F#	16c#]	8d#
.	.	.	8B	.
.	.	8E	.	8c#
.	.	.	16A#	.
.	.	4F#	4B	4d#
=25:||:	=25:||:	=25:||:	=25:||:	=25:||:
*>B	*>B	*>B	*>B	*>B
[2.B	2.ryy	4r	2.ryy	8r
.	.	.	.	8ff#
.	.	8r	.	[4gg#
.	.	8dd#	.	.
.	.	[4ee	.	16gg#]
.	.	.	.	16gg#
.	.	.	.	16ff#
.	.	.	.	16ee
=26	=26	=26	=26	=26
4B]	2.ryy	16ee]	2.ryy	[4ff#
.	.	16ee	.	.
.	.	16dd#	.	.
.	.	16cc#	.	.
2B#t	.	8dd#	.	16ff#]
.	.	.	.	16ff#
.	.	8r	.	16gg#
.	.	.	.	16aa
.	.	4r	.	16gg#
.	.	.	.	16ff#
.	.	.	.	16ee
.	.	.	.	16dd#
=27	=27	=27	=27	=27
[4c#	2.ryy	16r	2.ryy	[4ee
.	.	16dd#	.	.
.	.	16cc#	.	.
.	.	16b#	.	.
16c#]	.	4cc#	.	8ee]
16Bn	.	.	.	.
16A	.	.	.	8ee
16G#	.	.	.	.
16A	.	[4f#	.	8dd#
16c#	.	.	.	.
16F#	.	.	.	8cc#
16A	.	.	.	.
=28	=28	=28	=28	=28
8G#	2.ryy	16f#]	2.ryy	2b#
.	.	16f#	.	.
8GG#	.	16g#	.	.
.	.	16a	.	.
8G#	.	16g#	.	.
.	.	16f#	.	.
8A	.	16e	.	.
.	.	16d#	.	.
8G#	.	16c#	.	4r
.	.	16B#X	.	.
8F#	.	16c#	.	.
.	.	16d#	.	.
=29	=29	=29	=29	=29
8E	2.ryy	8G#	2.ryy	16r
.	.	.	.	16cc#
8r	.	8c#	.	16g#
.	.	.	.	16f##
4r	.	8c#	.	16g#
.	.	.	.	16b#
.	.	8G#	.	16cc#
.	.	.	.	16dd#
4C#	.	8G#	.	16ee
.	.	.	.	16dd#
.	.	8G#	.	16ee
.	.	.	.	16cc#
=30	=30	=30	=30	=30
8BB#	2.ryy	8G#	2.ryy	16dd#
.	.	.	.	16b#
8r	.	8d#	.	16g#
.	.	.	.	16f##
4r	.	8d#	.	16g#
.	.	.	.	16b#
.	.	8G#	.	16dd#
.	.	.	.	16ee
4GG#	.	8G#	.	16ff#
.	.	.	.	16ee
.	.	8G#	.	16ff#
.	.	.	.	16dd#
=31	=31	=31	=31	=31
8C#	2.ryy	16G#	2.ryy	[4ee
.	.	16cc#	.	.
8E	.	16g#	.	.
.	.	16bn	.	.
8F#	.	16a	.	8.ee]
.	.	16cc#	.	.
8A	.	8f#	.	.
.	.	.	.	[16dd#
8F##	.	8e	.	16dd#]
.	.	.	.	8cc#
8G#	.	8d#	.	.
.	.	.	.	16b#
=32	=32	=32	=32	=32
8C#	2.ryy	16e	2.ryy	4cc#
.	.	16a	.	.
8E	.	16g#	.	.
.	.	16f#	.	.
8G#	.	16e	.	4r
.	.	16d#	.	.
8c#	.	16e	.	.
.	.	16f#	.	.
8B	.	16g#	.	4r
.	.	16a	.	.
8A	.	32b	.	.
.	.	32a	.	.
.	.	32g#	.	.
.	.	32a	.	.
=33	=33	=33	=33	=33
8G#	2.ryy	8b	2.ryy	16r
.	.	.	.	16ee
8B	.	8r	.	16dd#
.	.	.	.	16cc#
8e	.	4r	.	16b
.	.	.	.	16a#
8g#	.	.	.	16b
.	.	.	.	16cc#
8f#	.	4r	.	16dd#
.	.	.	.	16ee
8e	.	.	.	32ff#
.	.	.	.	32ee
.	.	.	.	32dd#
.	.	.	.	32ee
=34	=34	=34	=34	=34
*	*	*staff:9	*	*
*	*	*clefF4	*	*
8d#	2.ryy	8r	2.ryy	16ff#
.	.	.	.	16gg#
8g#	.	8b	.	16ff#
.	.	.	.	16ee
8f#	.	8a	.	16dd#
.	.	.	.	16cc#
8e	.	8g#	.	16dd#
.	.	.	.	16ee
8d#	.	8f#	.	16ff#
.	.	.	.	16gg#
8c#	.	8e	.	32aa
.	.	.	.	32gg#
.	.	.	.	32ff#
.	.	.	.	32gg#
=35	=35	=35	=35	=35
8B	2.ryy	8d#	2.ryy	16aa
.	.	.	.	16cc#
8c#	.	8e	.	16b
.	.	.	.	16a#
8B	.	8d#	.	16b
.	.	.	.	16aan
8A	.	8c#	.	16gg#
.	.	.	.	16ff#
8G#	.	[4B	.	16bb
.	.	.	.	16ee
8F#	.	.	.	16dd#
.	.	.	.	16aa
=36	=36	=36	=36	=36
8E	2.ryy	16B]	2.ryy	16gg#
.	.	16f#	.	16r
8F#	.	16e	.	8r
.	.	16d#	.	.
8G#	.	16e	.	4r
.	.	16ddn	.	.
8E	.	16cc#	.	.
.	.	16b	.	.
8C#	.	16ee	.	4r
.	.	16a	.	.
8E	.	16g#	.	.
.	.	16ddn	.	.
=37	=37	=37	=37	=37
*	*	*staff:8	*	*
*	*	*clefG2	*	*
8AA	2.ryy	2cc#	2.ryy	16r
.	.	.	.	16gg#
[8A	.	.	.	16ff#
.	.	.	.	16ee
16A]	.	.	.	8ff#
16G#	.	.	.	.
16F#	.	.	.	4aa
16E	.	.	.	.
16D#	.	[4b	.	.
16C#	.	.	.	.
16BB	.	.	.	[8dd#
16AA	.	.	.	.
=38	=38	=38	=38	=38
8GG#	2.ryy	2b]	2.ryy	16dd#]
.	.	.	.	16ff#
[8G#	.	.	.	16ee
.	.	.	.	16dd#
16G#]	.	.	.	8ee
16F#	.	.	.	.
16E	.	.	.	4gg#
16D#	.	.	.	.
16C#	.	[4a	.	.
16BB	.	.	.	.
16AA	.	.	.	[8cc#
16GG#	.	.	.	.
=39	=39	=39	=39	=39
8FF#	2.ryy	2a_	2.ryy	16cc#]
.	.	.	.	16ee
[8F#	.	.	.	16dd#
.	.	.	.	16cc#
16F#]	.	.	.	8dd#
16E	.	.	.	.
16D#	.	.	.	8ff#
16C#	.	.	.	.
16BB	.	8a]	.	8ff#
16AA	.	.	.	.
16GG#	.	[8d#	.	8a
16FF#	.	.	.	.
=40	=40	=40	=40	=40
*	*	*	*staff:8	*
8EE	2.ryy	16d#]	4ryy	8a
.	.	[8.B	.	.
[8E	.	.	.	16g#
.	.	.	.	16f#
16E]	.	4B]	2eM	[2g#
16D#	.	.	.	.
16E	.	.	.	.
16F#	.	.	.	.
16G#	.	4r	.	.
16B	.	.	.	.
16E	.	.	.	.
16G#	.	.	.	.
=41	=41	=41	=41	=41
8A	2.ryy	4c#	2.ryy	16g#]
.	.	.	.	16g#
8AA	.	.	.	16f#
.	.	.	.	16e
8A	.	4r	.	16d#
.	.	.	.	16c#
8B	.	.	.	16d#
.	.	.	.	16e
8A	.	4r	.	16f#
.	.	.	.	16g#
8G#	.	.	.	32a
.	.	.	.	32g#
.	.	.	.	32f#
.	.	.	.	32g#
=42	=42	=42	=42	=42
4F#	2.ryy	16r	2.ryy	[2.a
.	.	16e	.	.
.	.	16d#	.	.
.	.	16c#	.	.
8r	.	16B	.	.
.	.	16A#	.	.
8G#	.	16B	.	.
.	.	16c#	.	.
8F#	.	16d#	.	.
.	.	16e	.	.
8E	.	32f#	.	.
.	.	32e	.	.
.	.	32d#	.	.
.	.	32e	.	.
=43	=43	=43	=43	=43
8EQ	.	.	.	.
[4D#wp	2.ryy	8f#	2.ryy	8a]
.	.	8r	.	8ff#
16D#]	.	8r	.	8ff#
16B	.	.	.	.
16c#	.	8f#	.	8a
16d#	.	.	.	.
16e	.	8e	.	8g#
16c#	.	.	.	.
16B	.	8r	.	8bb
16A	.	.	.	.
=44	=44	=44	=44	=44
*	*	*	*staff:6	*
16G#	2.ryy	8r	4ryy	8bb
16F#	.	.	.	.
16G#	.	8g#	.	8ee
16A	.	.	.	.
16B	.	8f#	4ryy	8dd#
16G#	.	.	.	.
16F#	.	8r	.	8aa
16E	.	.	.	.
16D#	.	8r	8ryy	8aa
16C#	.	.	.	.
16D#	.	8f#	8a	8b
16E	.	.	.	.
=45	=45	=45	=45	=45
16F#	2.ryy	4d#	[4a	[4b
16D#	.	.	.	.
16C#	.	.	.	.
16BB	.	.	.	.
8E	.	4e	16a]	8b]
.	.	.	8.g#	.
8C#	.	.	.	16cc#
.	.	.	.	[16ee
8AA	.	8f#	4ryy	16ee]
.	.	.	.	8ee
8BB	.	8a	.	.
.	.	.	.	16dd#
=46	=46	=46	=46	=46
8E	2.ryy	4g#	2.ryy	16r
.	.	.	.	16b
8EE	.	.	.	16ee
.	.	.	.	16dd#
8EE	.	16r	.	4ee
.	.	16b	.	.
8E	.	16a	.	.
.	.	16b	.	.
8E	.	16r	.	4cc#
.	.	16a	.	.
8EE	.	16g#	.	.
.	.	[16a	.	.
=47	=47	=47	=47	=47
8E	2.ryy	4a]	2.ryy	16b
.	.	.	.	16cc#
8EE	.	.	.	16ddn
.	.	.	.	16cc#
8EE	.	16r	.	4dd
.	.	16a	.	.
8E	.	16g#	.	.
.	.	[16a	.	.
8E	.	16a]	.	4b
.	.	16g#	.	.
8EE	.	16f#	.	.
.	.	[16g#	.	.
=48	=48	=48	=48	=48
8E	2.ryy	4g#]	2.ryy	16a
.	.	.	.	16b
8EE	.	.	.	16ccn
.	.	.	.	16b
8EE	.	16r	.	4cc
.	.	16g#	.	.
8E	.	16f#	.	.
.	.	16g#	.	.
8E	.	16r	.	[4a
.	.	16f#	.	.
8EE	.	16e	.	.
.	.	[16f#	.	.
=49	=49	=49	=49	=49
16DD#	2.ryy	4f#]	4B	4a]
16FF#	.	.	.	.
16BB	.	.	.	.
16C#	.	.	.	.
16D#	.	4ryy	4r	4r
16E	.	.	.	.
16F#	.	.	.	.
16G#	.	.	.	.
16A	.	4ryy	16r	4r
16r	.	.	16B	.
8r	.	.	16c#	.
.	.	.	16d#	.
=50	=50	=50	=50	=50
*	*	*clefF4	*	*
16r	2.ryy	2ryy	4e	4g#
16B	.	.	.	.
16G#	.	.	.	.
16E	.	.	.	.
4B	.	.	4r	16r
.	.	.	.	16g#
.	.	.	.	16f#
.	.	.	.	16e
4BB	.	8r	16f#	4f#
.	.	.	16c#	.
.	.	16r	8d#	.
.	.	16A	.	.
=51	=51	=51	=51	=51
[2.E	2.ryy	8G#	2ryy	16r
.	.	.	.	16B
.	.	8F#	.	16e
.	.	.	.	16d#
.	.	8G#	.	16e
.	.	.	.	16B
.	.	8B	.	16g#
.	.	.	.	16e
.	.	8A	16r	[4b
.	.	.	16f#	.
.	.	8G#	16e	.
.	.	.	16dn	.
=52	=52	=52	=52	=52
*	*staff:1	*	*	*
*	*clefF4	*	*	*
*	*k[f#c#g#d#]	*	*	*
2.E_	2ryy	8A	8c#	16b]
.	.	.	.	16e
.	.	8B	8ryy	16a
.	.	.	.	16g#
.	.	8c#	4ryy	16a
.	.	.	.	16e
.	.	8e	.	16cc#
.	.	.	.	16a
.	4A	8r	16r	[4ee
.	.	.	16b	.
.	.	8B	16a	.
.	.	.	16g#	.
=53	=53	=53	=53	=53
2.E_	4A	4cn	8f#	16ee]
.	.	.	.	16a
.	.	.	8ryy	16dd#
.	.	.	.	16cc#
.	8ryy	8r	4ryy	16dd#
.	.	.	.	16a
.	8A	8c	.	16ff#
.	.	.	.	16dd#
.	8A	8c	4ryy	16aa
.	.	.	.	16ff#
.	8A	8c	.	16ee
.	.	.	.	16dd#
=54	=54	=54	=54	=54
2.E]	2.G#	2.B	2.g# 2.b	2.ee
==:|	==:|	==:|	==:|	==:|
*-	*-	*-	*-	*-
!!!AFR:  prelude
!!!EFL:  65/96
!!!END:  1994/02/06/
!!!VID:  400600723 Bach, BWV 878-01
!!!AST:  Baroque
!!!OCY:  Deutschland
!!!ODT:  1742///
!!!PDT:  1801///
!!!EED:  Walter Hewlett
!!!ENC:  Walter Hewlett
!!!YOR:  Bach Gesellschaft Edition xiv
!!!AFT:  enhanced SCORE
!!!RDT:  2011/10/07/ by Andreas Kornstaedt using massScr2hmd
!!!SCA1: Thematisch-systematisches Verzeichnis der musikalischen Werke 
!!!SCA2: Johann Sebastian Bach: Bach-Werke-Verzeichnis (Schmieder)
!!!YEC1: Copyright 1994, 2000 Center for Computer Assisted Research 
!!!YEC2: in the Humanities
!!!YEM1: Rights to all derivative editions reserved.
!!!YEM2: Refer to licensing agreement for further details.
!!!YEN:  United States of America
!!!ref:  @{OTL}, @{SCT}
!!muse2ps: T^@{OTL} @{ONM} in @{OKY}^C^J.S. Bach\n@{SCT}-@{OMV}^
!!muse2ps: u^@{OPR@ENG}, @{OVM@ENG}^j
